Origami/48x48/apps/teeworlds.svg

<svg width="48" height="48" version="1.1" viewBox="0 0 48 48" xmlns="http://www.w3.org/2000/svg">
 <path d="m39.999998 39.065c-0.0035 2.935-0.707153 3.913694-9.65137 3.913693-2.542723 0-5.637936 0.230388-7.267468-0.823985-1.53866-0.995575-0.983702-2.456667-0.983703-3.943612 0-3.061711 2.907465-5.211096 7.851114-5.211096 4.94365 0 10.055118 3 10.051427 6.065z" style="opacity:.2"/>
 <path d="m39.999998 38.065c-0.0035 2.935-0.707153 3.913694-9.65137 3.913693-2.542723 0-5.637936 0.230388-7.267468-0.823985-1.53866-0.995575-0.983702-2.456667-0.983703-3.943612 0-3.061711 2.907465-5.211096 7.851114-5.211096 4.94365 0 10.055118 3 10.051427 6.065z" style="fill:#d48003"/>
 <path d="m24 3.9999998a18 18 0 0 0 -18 18 18 18 0 0 0 18 18 18 18 0 0 0 18 -18 18 18 0 0 0 -18 -18z" style="opacity:.2"/>
 <path d="m24 2.9999998a18 18 0 0 0 -18 18 18 18 0 0 0 18 18 18 18 0 0 0 18 -18 18 18 0 0 0 -18 -18z" style="fill:#fdc33b"/>
 <ellipse cx="21" cy="19" rx="3" ry="4" style="opacity:.1"/>
 <path d="m24.999998 39.065c-0.0035 2.935-0.707153 3.913694-9.65137 3.913693-2.542723 0-5.6379357 0.230388-7.2674684-0.823985-1.53866-0.995575-0.983702-2.456667-0.9837022-3.943612-5e-7 -3.061711 2.9074646-5.211096 7.8511136-5.211096 4.94365 0 10.055118 3 10.051427 6.065z" style="opacity:.2"/>
 <path d="m24.999998 38.065c-0.0035 2.935-0.707153 3.913694-9.65137 3.913693-2.542723 0-5.6379357 0.230388-7.2674684-0.823985-1.53866-0.995575-0.983702-2.456667-0.9837022-3.943612-5e-7 -3.061711 2.9074646-5.211096 7.8511136-5.211096 4.94365 0 10.055118 3 10.051427 6.065z" style="fill:#d48003"/>
 <ellipse cx="21" cy="18" rx="3" ry="4" style="fill:#414141"/>
 <ellipse cx="30" cy="19" rx="3" ry="4" style="opacity:.1"/>
 <ellipse cx="30" cy="18" rx="3" ry="4" style="fill:#414141"/>
 <path d="M 24 3 A 18 18 0 0 0 6 21 A 18 18 0 0 0 6.0214844 21.414062 A 18 18 0 0 1 24 4 A 18 18 0 0 1 41.978516 21.585938 A 18 18 0 0 0 42 21 A 18 18 0 0 0 24 3 z" style="fill:#ffffff;opacity:.2"/>
</svg>

<svg xmlns="http://www.w3.org/2000/svg" width="48" height="48" version="1.1" viewBox="0 0 48 48">
 <path style="opacity:0.2" d="m 39.999998,39.065 c -0.0035,2.935 -0.707153,3.913694 -9.65137,3.913693 -2.542723,0 -5.637936,0.230388 -7.267468,-0.823985 C 21.5425,41.159133 22.097458,39.698041 22.097457,38.211096 22.097457,35.149385 25.004922,33 29.948571,33 c 4.94365,0 10.055118,3 10.051427,6.065 z"/>
 <path style="fill:#d48003" d="m 39.999998,38.065 c -0.0035,2.935 -0.707153,3.913694 -9.65137,3.913693 -2.542723,0 -5.637936,0.230388 -7.267468,-0.823985 C 21.5425,40.159133 22.097458,38.698041 22.097457,37.211096 22.097457,34.149385 25.004922,32 29.948571,32 c 4.94365,0 10.055118,3 10.051427,6.065 z"/>
 <path style="opacity:0.2" d="M 24,3.9999998 A 18,18 0 0 0 6,22 18,18 0 0 0 24,40 18,18 0 0 0 42,22 18,18 0 0 0 24,3.9999998 Z"/>
 <path style="fill:#fdc33b" d="M 24,2.9999998 A 18,18 0 0 0 6,21 18,18 0 0 0 24,39 18,18 0 0 0 42,21 18,18 0 0 0 24,2.9999998 Z"/>
 <ellipse style="opacity:0.1" cx="21" cy="19" rx="3" ry="4"/>
 <path style="opacity:0.2" d="m 24.999998,39.065 c -0.0035,2.935 -0.707153,3.913694 -9.65137,3.913693 -2.542723,0 -5.6379357,0.230388 -7.2674684,-0.823985 C 6.5424996,41.159133 7.0974576,39.698041 7.0974574,38.211096 7.0974569,35.149385 10.004922,33 14.948571,33 c 4.94365,0 10.055118,3 10.051427,6.065 z"/>
 <path style="fill:#d48003" d="m 24.999998,38.065 c -0.0035,2.935 -0.707153,3.913694 -9.65137,3.913693 -2.542723,0 -5.6379357,0.230388 -7.2674684,-0.823985 C 6.5424996,40.159133 7.0974576,38.698041 7.0974574,37.211096 7.0974569,34.149385 10.004922,32 14.948571,32 c 4.94365,0 10.055118,3 10.051427,6.065 z"/>
 <ellipse style="fill:#414141" cx="21" cy="18" rx="3" ry="4"/>
 <ellipse style="opacity:0.1" cx="30" cy="19" rx="3" ry="4"/>
 <ellipse style="fill:#414141" cx="30" cy="18" rx="3" ry="4"/>
 <path style="opacity:0.2;fill:#ffffff" d="M 24 3 A 18 18 0 0 0 6 21 A 18 18 0 0 0 6.0214844 21.414062 A 18 18 0 0 1 24 4 A 18 18 0 0 1 41.978516 21.585938 A 18 18 0 0 0 42 21 A 18 18 0 0 0 24 3 z"/>
</svg>
